www/assets/icons/r_mobiledata.svg

<svg xmlns="http://www.w3.org/2000/svg" width="24" height="24" viewBox="0 0 24 24" fill='currentColor'><path d="m14.3 13.2 1.2 2.8h-2l-1.13-2.67H10.5V16h-2V8h5c1.13 0 2 .87 2 2v1.33c0 .8-.53 1.54-1.2 1.87m-.8-3.2h-3v1.33h3z"/></svg>

<svg width="24" height="24" viewBox="0 0 24 24" xmlns="http://www.w3.org/2000/svg" fill='currentColor'><path d="M14.3 13.2L15.5 16H13.5L12.37 13.33H10.5V16H8.5V8H13.5C14.63 8 15.5 8.87 15.5 10V11.33C15.5 12.13 14.97 12.87 14.3 13.2ZM13.5 10H10.5V11.33H13.5V10Z"/></svg>
